X: 11652
Q: "Slow."
M: 3/4
L: 1/8
K: Eb
EC |\
E2G2B2 | G3FE2 | e3fg2 | G4GB |\
c2(ec)(BG) | (B>cBG) (FE) | (gf)(ec)(BG) | {G}F4 (EC) |\
E>FG2{GA}B2 | G3F{GF}E2 | e3(f{ef}g2) | G4(eB) |
(E>F)G2B2 | G3FE2 | e2f2{ef}g2 | G4(GB) |\
c2(ec)(BG) | (B>c)(BG) (FE) | ({ef}gf)(ec)(BG) | (F>G)(FE)C2 |
E2G2{GA}B2 | G3F{GF}E2 | e3f{ef}g2 | G4(eB) |\
e2(e>fg)f | (e>fe)cB2 | (cB)(c>gf)e | (c>ec)BG2 |
(BG)(Bc)(ec) | (B>cB)GFE | ({ef}gf)(ec)(BG) | (F>GF)EC2 |\
(e>f)g2{ga}b2 | {a}g3f{gf}e2 | e3f{ef}g2 | G4(eB) |\


